svgs/seeker.svg

<svg width="192" height="192" viewBox="0 0 192 192" fill="none" xmlns="http://www.w3.org/2000/svg">
<path d="M96 170C136.869 170 170 136.869 170 96C170 55.1309 136.869 22 96 22C55.1309 22 22 55.1309 22 96C22 136.869 55.1309 170 96 170Z" stroke="black" stroke-width="12" stroke-linecap="round" stroke-linejoin="round"/>
<path d="M42.8193 95.8133C43.0708 86.4915 46.2087 77.4775 51.8 70.0145C57.3913 62.5515 65.1605 57.0073 74.0361 54.1467C82.9117 51.2861 92.4562 51.25 101.353 54.0434C110.25 56.8369 118.061 62.3221 123.709 69.7427L145.593 70.919C149.153 71.1117 151.239 73.7507 149.226 76.4857C148.13 77.581 132.856 94.813 132.856 94.813C129.804 98.6203 112.542 115.392 146.94 144.304" stroke="black" stroke-width="12" stroke-linecap="round" stroke-linejoin="round"/>
<path d="M42.8387 95.2363C42.125 104.639 42.1085 114.082 42.7893 123.487C36.1579 119.897 29.1667 119.667 26.5 120" stroke="black" stroke-width="12" stroke-linecap="round" stroke-linejoin="round"/>
<path d="M81.9 79.473C81.4129 77.0877 81.8933 74.6067 83.2356 72.5756C84.5778 70.5446 86.6719 69.1299 89.0571 68.6428C91.4424 68.1558 93.9235 68.6362 95.9545 69.9784C97.9856 71.3207 99.4002 73.4147 99.8873 75.8" stroke="black" stroke-width="12" stroke-linecap="round" stroke-linejoin="round"/>
</svg>

<svg xmlns="http://www.w3.org/2000/svg" width="192" height="192" fill="none" stroke="#000" stroke-linecap="round" stroke-linejoin="round" stroke-width="12" viewBox="0 0 192 192"><path d="M96 170c40.869 0 74-33.131 74-74s-33.131-74-74-74-74 33.13-74 74 33.13 74 74 74"/><path d="M42.82 95.813a45.054 45.054 0 0 1 80.889-26.07l21.884 1.176c3.56.193 5.646 2.832 3.633 5.567-1.096 1.095-16.37 18.327-16.37 18.327-3.052 3.807-20.314 20.579 14.084 49.491"/><path d="M42.839 95.236a191 191 0 0 0-.05 28.251c-6.631-3.59-13.622-3.82-16.289-3.487m55.4-40.527A9.179 9.179 0 1 1 99.887 75.8"/></svg>
